icons/desktop/16/svg/avatar-signed-in-fill-16.svg

<svg width="16" height="16" viewBox="0 0 16 16" fill="none" xmlns="http://www.w3.org/2000/svg">
<path fill-rule="evenodd" clip-rule="evenodd" d="M8 0C12.418 0 16 3.582 16 8C16 12.418 12.418 16 8 16C3.582 16 0 12.418 0 8C0 3.582 3.582 0 8 0ZM7.99902 9C6.98105 9 6.04883 9.07643 5.21484 9.19043C4.57996 9.27749 4.05373 9.66056 3.75977 10.1885C3.58714 10.4983 3.6281 10.8979 3.84277 11.1797C4.80077 12.4337 6.30204 13.251 7.99902 13.251L8 13.25C9.69698 13.25 11.1983 12.4337 12.1562 11.1787C12.372 10.8967 12.4132 10.4964 12.2393 10.1865C11.9443 9.65974 11.419 9.27749 10.7832 9.19043C9.95022 9.07643 9.017 9 7.99902 9ZM8 3.75C6.72202 3.75002 5.72434 4.94822 6.06934 6.2832C6.24339 6.95697 6.79403 7.50757 7.4668 7.68164C8.80078 8.0266 10 7.02896 10 5.75098C9.99999 4.646 9.10497 3.75003 8 3.75Z" fill="black"/>
</svg>

<!-- This Source Code Form is subject to the terms of the Mozilla Public
   - License, v. 2.0. If a copy of the MPL was not distributed with this
   - file, You can obtain one at http://mozilla.org/MPL/2.0/. -->
<svg xmlns="http://www.w3.org/2000/svg" width="16" height="16" fill="context-fill" fill-opacity="context-fill-opacity" viewBox="0 0 16 16">
    <path fill-rule="evenodd" d="M8 0a8 8 0 1 1 0 16A8 8 0 0 1 8 0m-.001 9c-1.018 0-1.95.076-2.784.19a1.97 1.97 0 0 0-1.455.999.92.92 0 0 0 .083.99 5.22 5.22 0 0 0 4.156 2.072L8 13.25a5.22 5.22 0 0 0 4.156-2.071.92.92 0 0 0 .083-.992 1.97 1.97 0 0 0-1.456-.997A20.5 20.5 0 0 0 8 9M8 3.75a2.004 2.004 0 0 0-1.93 2.533 1.98 1.98 0 0 0 1.397 1.399A2.004 2.004 0 0 0 10 5.75 2 2 0 0 0 8 3.75" clip-rule="evenodd" />
</svg>
